!!!OTL: Klaglied ueber Kriegsnoth. (1553.) / (Mel. Sie sind geschickt zu Sturm und Streit, oder der Pavierton sechszeilig)
!!!ARE: Europa, Mitteleuropa, Deutschland
!!!SCT: A0407
!!!TXL: @@NDS
!!!YEM: Copyright 1995, estate of Helmut Schaffrath.
**kern	**text
*M3/1	*
*met(c|)	*
*met(3)	*
*clefC1	*
*k[b-]	*
*F:	*
=1	=1
1ryy	.
1ryy	.
{1a	Ach
=2	=2
0g	Herr,
1a	du
=3	=3
0b-	al-
1cc	-ler-
=4	=4
0a	-höchſter
1g	.
=5	=5
0f}	Gott,
{1a	ſih
=6	=6
0g	an
1a	die
=7	=7
0b-	kleg-
1cc	-lich
=8	=8
0a	groſ-
1g	-ſe
=9	=9
0f}	Noht,
{1f	in
=10	=10
*lig	*
1.d	gan-
2e	.
*Xlig	*
1f	-tʒen
=11	=11
*lig	*
!LO:N:vis=0	!
1g	deut-
!LO:N:vis=0	!
1f	.
*Xlig	*
1e	-ſchen
=12	=12
*lig	*
!LO:N:vis=0	!
1d	lan-
!LO:N:vis=0	!
1c	.
*Xlig	*
1d	.
=13	=13
0c}	-den:
{1g	ſolch
=14	=14
0g	rau-
1g	-ben,
=15	=15
*lig	*
1.g	bren-
2a	.
*Xlig	*
1b-	-nen,
=16	=16
*lig	*
1.cc	blut
2b-	.
*Xlig	*
1a	vnd
=17	=17
0g}	mord
{1g	von
=18	=18
0g	den
1g	Chri-
=19	=19
*lig	*
1.g	-ſten
2a	.
*Xlig	*
1b-	vor
=20	=20
*lig	*
1.cc	nih
2b-	.
1a	ge-
*Xlig	*
=21	=21
0g}	-hort,
{1f	ſeyd
=22	=22
*lig	*
1.f	die
2g/	.
*Xlig	*
1a	Welt
=23	=23
*lig	*
1b-	hat
1a	.
*Xlig	*
1g	ge-
=24	=24
0.f	-ſtan-
=25	=25
0.f/ll}	-den.
==	==
!!!GTL: Einige historisch-politische Lieder
!!!AGN: Romanze, Ballade, Lied, Kriegslied
!! M. Praetorius, Mus. Sion. VII. 1609 No. 277.
!!!ONB: ESAC (Essen Associative Code) Database: ALTDEU
!!!AMT: simple triple
!!!AIN: vox
!!!EED: Helmut Schaffrath
!!!EEV: 1.0
!!!RDF**kern: l = terminal long
!!!URL-scan: https://rosdok.uni-rostock.de/mcrviewer/recordIdentifier/rosdok_ppn738218359/iview2/phys_0579.iview2?x=131.00824237741085&y=2044.373714520596&scale=0.7083010262257697&rotation=0&layout=singlePageLayout
!!!ENC: Anna Maria Matuszewska
!!!EEV: 2024/15/03
*-	*-
